X: 0
T: The Earl's Chair
C: Pato Moloney 
M: 4/4
L: 1/8
K: Dmaj
|:"Bm"B2 dB BAFA|"G"B2 dB BAFB|"D"AF (3FFF DF (3FFF|AFdB ADFA|
"Bm"B2 dB BAFA|"G"B2 dB BAFB|"D"A3 B "G"dcdf|1 "A"edef "D"d3 A:|2 "A"edef "D"d3 f||
|:"A"e2 ef "D"d2 df|"A"edef "D"dB B2|"A"e2 ef "D"dcde|fedB ADFA| 
"A"e2 ef dB (3BBB|"G"gB (3BBB defg|"D"afbf "G"afeg|"A"fedB ADFA:| 